X:EATMD 13-01 56
T:?
M:6/8
K:G
P:A
D| G2D G2D G2D G2B |1,3 dcB BAG A3-A2 :|2,4 dcB AGA G3-G2 :|
P:B
D| BAB cBc d3 B2c |1,3 dcB BAG A3-A2 :|2,4 dcB AGA G3-G2 :|

